; generated by Slic3r 0.9.9 on 2013-06-03 at 20:01:54

; layer_height = 0.300
; perimeters = 2
; top_solid_layers = 3
; bottom_solid_layers = 2
; fill_density = 0
; perimeter_speed = 40
; infill_speed = 40
; travel_speed = 100
; nozzle_diameter = 0.50
; filament_diameter = 2.92
; extrusion_multiplier = 1
; perimeters extrusion width = 0.70mm
; infill extrusion width = 0.70mm
; solid infill extrusion width = 0.70mm
; top infill extrusion width = 0.70mm
; first layer extrusion width = 0.80mm

G21 ; set units to millimeters
M104 S230 ; set temperature
G28 ; home all axes
M109 S230 ; wait for temperature to be reached
G90 ; use absolute coordinates
G92 E0
M82 ; use absolute distances for extrusion
G1 Z0.400 F6000.000
G1 X80.691 Y77.811
G1 X82.021 Y76.421 F900.000 E0.08453
G1 X83.851 Y74.811 E0.19163
G1 X85.381 Y73.671 E0.27547
G1 X87.461 Y72.381 E0.38301
G1 X88.511 Y71.801 E0.43572
G1 X89.241 Y71.481 E0.47074
G1 X91.511 Y70.571 E0.57820
G1 X93.391 Y70.001 E0.66452
G1 X95.781 Y69.491 E0.77190
G1 X97.701 Y69.251 E0.85692
G1 X100.141 Y69.151 E0.96423
G1 X102.071 Y69.231 E1.04910
G1 X104.491 Y69.541 E1.15631
G1 X106.371 Y69.951 E1.24085
G1 X108.701 Y70.661 E1.34788
G1 X110.511 Y71.381 E1.43347
G1 X112.701 Y72.481 E1.54116
G1 X114.371 Y73.511 E1.62737
G1 X116.331 Y74.961 E1.73450
G1 X117.811 Y76.261 E1.82106
G1 X119.501 Y78.031 E1.92859
G1 X120.691 Y79.511 E2.01203
G1 X122.281 Y81.871 E2.13707
G1 X122.491 Y82.211 E2.15463
G1 X122.871 Y82.911 E2.18963
G1 X123.041 Y83.281 E2.20752
G1 X124.041 Y85.511 E2.31490
G1 X124.661 Y87.291 E2.39773
G1 X125.381 Y90.031 E2.52221
G1 X125.531 Y90.821 E2.55754
G1 X125.581 Y91.221 E2.57525
G1 X125.821 Y94.051 E2.70005
G1 X125.821 Y95.931 E2.78266
G1 X125.621 Y98.371 E2.89023
G1 X125.531 Y99.171 E2.92560
G1 X125.381 Y99.951 E2.96050
G1 X124.661 Y102.701 E3.08541
G1 X124.041 Y104.481 E3.16823
G1 X122.871 Y107.081 E3.29351
G1 X122.491 Y107.781 E3.32851
G1 X122.061 Y108.461 E3.36386
G1 X120.691 Y110.481 E3.47111
G1 X119.471 Y111.991 E3.55640
G1 X117.781 Y113.751 E3.66362
G1 X116.361 Y115.001 E3.74674
G1 X114.081 Y116.691 E3.87145
G1 X113.401 Y117.131 E3.90703
G1 X112.701 Y117.511 E3.94203
G1 X110.511 Y118.611 E4.04972
G1 X108.661 Y119.341 E4.13710
G1 X106.301 Y120.051 E4.24539
G1 X104.481 Y120.451 E4.32727
G1 X102.091 Y120.761 E4.43317
G1 X100.141 Y120.841 E4.51892
G1 X97.701 Y120.741 E4.62623
G1 X95.731 Y120.491 E4.71348
G1 X93.341 Y119.971 E4.82095
G1 X91.511 Y119.411 E4.90504
G1 X89.241 Y118.501 E5.01250
G1 X87.501 Y117.621 E5.09818
G1 X85.421 Y116.341 E5.20549
G1 X83.851 Y115.181 E5.29127
G1 X82.021 Y113.571 E5.39837
G1 X80.691 Y112.181 E5.48290
G1 X79.151 Y110.281 E5.59036
G1 X78.051 Y108.651 E5.67677
G1 X76.861 Y106.521 E5.78398
G1 X76.041 Y104.731 E5.87049
G1 X75.231 Y102.421 E5.97805
G1 X74.751 Y100.551 E6.06288
G1 X74.341 Y98.151 E6.16986
G1 X74.181 Y96.221 E6.25496
G1 X74.181 Y93.771 E6.36261
G1 X74.341 Y91.841 E6.44770
G1 X74.751 Y89.441 E6.55469
G1 X75.231 Y87.571 E6.63952
G1 X76.041 Y85.261 E6.74708
G1 X76.861 Y83.471 E6.83359
G1 X78.051 Y81.341 E6.94080
G1 X79.151 Y79.711 E7.02720
G1 X80.622 Y77.897 E7.12982
G1 X88.067 Y83.686 F6000.000
G1 X81.261 Y78.271
G1 X82.511 Y76.971 F900.000 E7.20906
G1 X84.341 Y75.361 E7.31616
G1 X85.771 Y74.301 E7.39438
G1 X87.851 Y73.011 E7.50192
G1 X88.831 Y72.471 E7.55109
G1 X89.171 Y72.311 E7.56760
G1 X91.791 Y71.261 E7.69162
G1 X93.541 Y70.721 E7.77209
G1 X95.931 Y70.211 E7.87947
G1 X97.731 Y69.981 E7.95921
G1 X100.171 Y69.881 E8.06651
G1 X101.971 Y69.961 E8.14568
G1 X104.391 Y70.271 E8.25288
G1 X106.161 Y70.651 E8.33243
G1 X108.491 Y71.361 E8.43946
G1 X110.181 Y72.041 E8.51950
G1 X112.371 Y73.141 E8.62719
G1 X113.931 Y74.101 E8.70767
G1 X115.891 Y75.551 E8.81480
G1 X117.271 Y76.771 E8.89573
G1 X118.961 Y78.541 E9.00326
G1 X120.081 Y79.921 E9.08136
G1 X121.661 Y82.261 E9.20542
G1 X122.041 Y82.911 E9.23850
G1 X122.371 Y83.581 E9.27132
G1 X123.371 Y85.811 E9.37871
G1 X123.951 Y87.471 E9.45597
G1 X124.661 Y90.201 E9.57992
G1 X124.801 Y90.931 E9.61258
G1 X124.891 Y91.681 E9.64577
G1 X125.091 Y94.111 E9.75290
G1 X125.091 Y95.871 E9.83024
G1 X124.891 Y98.311 E9.93781
G1 X124.801 Y99.051 E9.97057
G1 X124.661 Y99.791 E10.00366
G1 X123.951 Y102.521 E10.12760
G1 X123.371 Y104.181 E10.20487
G1 X122.371 Y106.411 E10.31225
G1 X122.041 Y107.081 E10.34507
G1 X121.661 Y107.731 E10.37816
G1 X120.081 Y110.071 E10.50222
G1 X118.941 Y111.481 E10.58189
G1 X117.251 Y113.241 E10.68910
G1 X115.921 Y114.411 E10.76694
G1 X113.661 Y116.091 E10.89067
G1 X113.031 Y116.491 E10.92346
G1 X112.371 Y116.851 E10.95650
G1 X110.181 Y117.951 E11.06418
G1 X108.451 Y118.641 E11.14602
G1 X106.091 Y119.351 E11.25431
G1 X104.381 Y119.721 E11.33119
G1 X101.991 Y120.031 E11.43708
G1 X100.171 Y120.111 E11.51713
G1 X97.731 Y120.011 E11.62443
G1 X95.891 Y119.771 E11.70597
G1 X93.501 Y119.251 E11.81344
G1 X91.791 Y118.721 E11.89210
G1 X89.521 Y117.811 E11.99956
G1 X87.881 Y116.991 E12.08013
G1 X85.801 Y115.711 E12.18744
G1 X84.341 Y114.631 E12.26724
G1 X82.511 Y113.021 E12.37434
G1 X81.261 Y111.721 E12.45358
G1 X79.721 Y109.821 E12.56105
G1 X78.691 Y108.301 E12.64172
G1 X77.501 Y106.171 E12.74893
G1 X76.741 Y104.481 E12.83035
G1 X75.931 Y102.171 E12.93791
G1 X75.481 Y100.431 E13.01688
G1 X75.071 Y98.031 E13.12387
G1 X74.911 Y96.221 E13.20371
G1 X74.911 Y93.771 E13.31136
G1 X75.071 Y91.961 E13.39120
G1 X75.481 Y89.561 E13.49819
G1 X75.931 Y87.821 E13.57716
G1 X76.741 Y85.511 E13.68472
G1 X77.501 Y83.821 E13.76614
G1 X78.691 Y81.691 E13.87334
G1 X79.721 Y80.171 E13.95402
G1 X81.192 Y78.357 E14.05664
G1 X94.098 Y89.098 F6000.000
G1 X105.902 Y89.098 F900.000 E14.57534
G1 X105.902 Y100.902 E15.09404
G1 X94.098 Y100.902 E15.61275
G1 X94.098 Y89.208 E16.12660
G1 X94.833 Y89.833 F6000.000
G1 X105.167 Y89.833 F900.000 E16.58066
G1 X105.167 Y100.167 E17.03471
G1 X94.833 Y100.167 E17.48877
G1 X94.833 Y89.944 E17.93798
G1 X94.833 Y89.098 F6000.000
G1 X94.701 Y89.701
G1 X94.701 Y100.299
G1 X106.267 Y103.412
G1 X105.909 Y102.932
G1 X104.283 Y103.916 F900.000 E18.02148
G1 X102.501 Y104.570 E18.10489
G1 X100.627 Y104.871 E18.18829
G1 X98.729 Y104.810 E18.27170
G1 X96.879 Y104.385 E18.35512
G1 X95.141 Y103.615 E18.43863
G1 X93.586 Y102.529 E18.52200
G1 X92.264 Y101.164 E18.60548
G1 X91.230 Y99.573 E18.68888
G1 X90.512 Y97.800 E18.77293
G1 X90.150 Y95.943 E18.85605
G1 X90.150 Y94.057 E18.93893
G1 X90.512 Y92.201 E19.02201
G1 X91.230 Y90.427 E19.10608
G1 X92.264 Y88.836 E19.18947
G1 X93.586 Y87.471 E19.27296
G1 X95.141 Y86.385 E19.35633
G1 X96.879 Y85.615 E19.43984
G1 X98.729 Y85.190 E19.52325
G1 X100.627 Y85.129 E19.60667
G1 X102.501 Y85.430 E19.69006
G1 X104.283 Y86.084 E19.77347
G1 X105.909 Y87.068 E19.85698
G1 X107.315 Y88.343 E19.94039
G1 X108.296 Y89.654 E20.01232
G1 X108.296 Y100.346 E20.48213
G1 X107.315 Y101.657 E20.55406
G1 X105.990 Y102.858 E20.63262
G1 X106.350 Y103.525 F6000.000
G1 X104.603 Y104.582 F900.000 E20.72236
G1 X102.688 Y105.285 E20.81202
G1 X100.674 Y105.608 E20.90164
G1 X98.634 Y105.543 E20.99129
G1 X96.646 Y105.086 E21.08094
G1 X94.778 Y104.259 E21.17068
G1 X93.107 Y103.092 E21.26028
G1 X91.686 Y101.625 E21.35001
G1 X90.575 Y99.914 E21.43964
G1 X89.804 Y98.012 E21.52982
G1 X89.418 Y96.024 E21.61882
G1 X89.417 Y93.979 E21.70867
G1 X89.804 Y91.988 E21.79777
G1 X90.575 Y90.086 E21.88796
G1 X91.686 Y88.375 E21.97759
G1 X93.107 Y86.908 E22.06731
G1 X94.778 Y85.741 E22.15691
G1 X96.646 Y84.914 E22.24665
G1 X98.634 Y84.457 E22.33631
G1 X100.674 Y84.392 E22.42595
G1 X102.688 Y84.715 E22.51558
G1 X104.603 Y85.418 E22.60523
G1 X106.350 Y86.475 E22.69497
G1 X107.862 Y87.846 E22.78461
G1 X109.031 Y89.409 E22.87041
G1 X109.031 Y100.591 E23.36172
G1 X107.862 Y102.154 E23.44751
G1 X106.432 Y103.451 E23.53231
G1 X105.684 Y103.212 F6000.000
G1 X106.267 Y103.412
G1 X105.299 Y89.701
G1 X94.847 Y85.863
G1 X91.770 Y84.056
G1 X89.545 Y85.668
G1 X91.534 Y83.830 F900.000 E23.65132
G1 X93.820 Y82.428 E23.76915
G1 X96.032 Y81.560 E23.87357
G1 X98.360 Y81.084 E23.97795
G1 X100.431 Y80.985 E24.06906
G1 X102.467 Y81.190 E24.15898
G1 X104.769 Y81.810 E24.26373
G1 X106.927 Y82.812 E24.36829
G1 X109.155 Y84.381 E24.48802
G1 X110.814 Y86.055 E24.59157
G1 X112.183 Y88.027 E24.69706
G1 X113.188 Y90.187 E24.80175
G1 X113.805 Y92.488 E24.90640
G1 X113.972 Y94.160 E24.98026
G1 X113.810 Y97.513 E25.12777
G1 X113.188 Y99.811 E25.23235
G1 X112.189 Y101.950 E25.33611
G1 X110.825 Y103.924 E25.44151
G1 X108.899 Y105.830 E25.56059
G1 X106.934 Y107.191 E25.66560
G1 X104.791 Y108.185 E25.76942
G1 X102.453 Y108.810 E25.87574
G1 X100.735 Y108.992 E25.95167
G1 X98.361 Y108.919 E26.05601
G1 X95.782 Y108.362 E26.17193
G1 X92.968 Y107.130 E26.30695
G1 X91.011 Y105.762 E26.41185
G1 X89.318 Y104.072 E26.51694
G1 X87.619 Y101.533 E26.65117
G1 X86.480 Y98.668 E26.78664
G1 X86.059 Y96.328 E26.89113
G1 X86.055 Y93.671 E27.00785
G1 X86.687 Y90.666 E27.14279
G1 X87.933 Y87.877 E27.27702
G1 X89.545 Y85.668 E27.39716
G1 X91.770 Y84.056 F6000.000
G1 X94.847 Y85.863
G1 X94.701 Y89.701
G1 X94.701 Y100.299
G1 X93.564 Y100.996
G1 X91.577 Y99.008 F900.000 E27.52459
G1 X90.962 Y97.320 E27.60605
G1 X93.564 Y99.923 E27.77290
G1 X93.564 Y98.849 E27.82156
G1 X90.702 Y95.987 E28.00506
G1 X90.684 Y94.895 E28.05457
G1 X93.564 Y97.776 E28.23927
G1 X93.564 Y96.702 E28.28793
G1 X90.730 Y93.868 E28.46963
G1 X90.905 Y92.970 E28.51112
G1 X93.564 Y95.629 E28.68160
G1 X93.564 Y94.556 E28.73026
G1 X91.122 Y92.114 E28.88683
G1 X91.432 Y91.350 E28.92419
G1 X93.564 Y93.482 E29.06092
G1 X93.564 Y92.409 E29.10958
G1 X91.754 Y90.599 E29.22563
G1 X92.177 Y89.948 E29.26081
G1 X93.564 Y91.336 E29.34975
G1 X93.564 Y90.262 E29.39841
G1 X92.600 Y89.298 E29.46025
G1 X93.023 Y88.647 E29.49543
G1 X93.564 Y89.189 E29.53017
G1 X94.013 Y88.564 E29.56503
G1 X93.577 Y88.128 E29.59303
G1 X94.209 Y87.686 E29.62798
G1 X95.087 Y88.564 E29.68427
G1 X96.160 Y88.564 E29.73293
G1 X94.841 Y87.245 E29.81752
G1 X95.485 Y86.816 E29.85261
G1 X97.233 Y88.564 E29.96472
G1 X98.307 Y88.564 E30.01338
G1 X96.228 Y86.486 E30.14662
G1 X96.972 Y86.157 E30.18350
G1 X99.380 Y88.564 E30.33786
G1 X100.453 Y88.564 E30.38653
G1 X97.832 Y85.943 E30.55458
G1 X98.705 Y85.743 E30.59519
G1 X101.527 Y88.564 E30.77608
G1 X102.600 Y88.564 E30.82474
G1 X99.727 Y85.692 E31.00891
G1 X100.807 Y85.698 E31.05787
G1 X103.673 Y88.564 E31.24163
G1 X104.747 Y88.564 E31.29029
G1 X102.085 Y85.903 E31.46092
G1 X103.690 Y86.435 E31.53756
G1 X105.820 Y88.564 E31.67411
G1 X106.580 Y88.251 F6000.000
G1 X106.581 Y88.252 F900.000 E31.67414
G1 X106.436 Y89.180 F6000.000
G1 X107.762 Y90.507 F900.000 E31.75920
G1 X107.762 Y91.580 E31.80787
G1 X106.436 Y90.253 E31.89293
G1 X106.436 Y91.327 E31.94159
G1 X107.762 Y92.653 E32.02665
G1 X107.762 Y93.727 E32.07531
G1 X106.436 Y92.400 E32.16037
G1 X106.436 Y93.473 E32.20903
G1 X107.762 Y94.800 E32.29410
G1 X107.762 Y95.873 E32.34276
G1 X106.436 Y94.547 E32.42782
G1 X106.436 Y95.620 E32.47648
G1 X107.762 Y96.947 E32.56154
G1 X107.762 Y98.020 E32.61020
G1 X106.436 Y96.693 E32.69526
G1 X106.436 Y97.767 E32.74392
G1 X107.762 Y99.093 E32.82899
G1 X107.762 Y100.167 E32.87765
G1 X106.436 Y98.840 E32.96271
G1 X106.436 Y99.913 E33.01137
G1 X107.304 Y100.782 E33.06704
G1 X106.845 Y101.396 E33.10180
G1 X106.436 Y100.987 E33.12802
G1 X105.811 Y101.436 E33.16289
G1 X106.265 Y101.889 E33.19198
G1 X105.702 Y102.400 E33.22643
G1 X104.738 Y101.436 E33.28824
G1 X103.664 Y101.436 E33.33691
G1 X105.054 Y102.826 E33.42603
G1 X104.386 Y103.230 E33.46146
G1 X102.591 Y101.436 E33.57653
G1 X101.518 Y101.436 E33.62519
G1 X103.659 Y103.577 E33.76248
G1 X102.874 Y103.865 E33.80039
G1 X100.444 Y101.436 E33.95617
G1 X99.371 Y101.436 E34.00483
G1 X102.040 Y104.104 E34.17593
G1 X101.115 Y104.253 E34.21840
G1 X98.298 Y101.436 E34.39900
G1 X97.224 Y101.436 E34.44767
G1 X100.109 Y104.321 E34.63263
G1 X99.000 Y104.285 E34.68294
G1 X96.151 Y101.436 E34.86561
G1 X95.077 Y101.436 E34.91427
G1 X97.659 Y104.017 E35.07977
G1 X95.966 Y103.397 E35.16150
G1 X94.004 Y101.436 E35.28728
G1 X93.347 Y101.851 E35.32255
M104 S222 ; set temperature
G1 Z0.700 F6000.000
G1 X94.219 Y100.781
G1 X94.219 Y89.219 F2400.000 E35.66154
G1 X105.781 Y89.219 E36.00053
G1 X105.781 Y100.781 E36.33952
G1 X94.317 Y100.781 E36.67563
G1 X94.874 Y100.126 F6000.000
G1 X94.874 Y89.874 F2400.000 E36.97624
G1 X105.126 Y89.874 E37.27685
G1 X105.126 Y100.126 E37.57747
G1 X94.972 Y100.126 E37.87520
G1 X94.219 Y100.126 F6000.000
G1 X100.635 Y104.993
G1 X98.714 Y104.931 F2400.000 E37.93155
G1 X96.840 Y104.501 E37.98790
G1 X95.081 Y103.722 E38.04431
G1 X93.507 Y102.622 E38.10063
G1 X92.168 Y101.240 E38.15703
G1 X91.122 Y99.629 E38.21337
G1 X90.387 Y97.815 E38.27074
G1 X90.030 Y95.971 E38.32581
G1 X90.029 Y94.035 E38.38260
G1 X90.387 Y92.185 E38.43785
G1 X91.122 Y90.371 E38.49523
G1 X92.168 Y88.760 E38.55157
G1 X93.507 Y87.378 E38.60796
G1 X95.081 Y86.278 E38.66428
G1 X96.840 Y85.499 E38.72070
G1 X98.714 Y85.069 E38.77705
G1 X100.635 Y85.007 E38.83340
G1 X102.532 Y85.311 E38.88973
G1 X104.336 Y85.974 E38.94608
G1 X105.982 Y86.970 E39.00249
G1 X107.405 Y88.261 E39.05884
G1 X108.417 Y89.614 E39.10837
G1 X108.417 Y100.386 E39.42424
G1 X107.405 Y101.739 E39.47377
G1 X105.982 Y103.030 E39.53012
G1 X104.336 Y104.026 E39.58653
G1 X102.532 Y104.689 E39.64288
G1 X100.731 Y104.977 E39.69634
G1 X100.676 Y105.649 F6000.000
G1 X98.629 Y105.583 F2400.000 E39.75639
G1 X96.633 Y105.125 E39.81644
G1 X94.758 Y104.295 E39.87655
G1 X93.080 Y103.123 E39.93657
G1 X91.654 Y101.650 E39.99668
G1 X90.539 Y99.933 E40.05672
G1 X89.766 Y98.025 E40.11707
G1 X89.379 Y96.039 E40.17639
G1 X89.378 Y93.970 E40.23706
G1 X89.766 Y91.975 E40.29666
G1 X90.539 Y90.067 E40.35702
G1 X91.654 Y88.350 E40.41706
G1 X93.080 Y86.877 E40.47716
G1 X94.758 Y85.705 E40.53718
G1 X96.633 Y84.875 E40.59729
G1 X98.629 Y84.417 E40.65734
G1 X100.676 Y84.351 E40.71739
G1 X102.698 Y84.675 E40.77743
G1 X104.621 Y85.381 E40.83748
G1 X106.375 Y86.443 E40.89759
G1 X107.892 Y87.818 E40.95764
G1 X109.072 Y89.396 E41.01541
G1 X109.072 Y100.604 E41.34404
G1 X107.892 Y102.182 E41.40180
G1 X106.375 Y103.557 E41.46185
G1 X104.621 Y104.619 E41.52196
G1 X102.698 Y105.325 E41.58202
G1 X100.773 Y105.633 E41.63918
G1 X100.331 Y105.093 F6000.000
G1 X100.689 Y105.472
G1 X105.299 Y100.299
G1 X108.899 Y89.509
G1 X111.547 Y87.631
G1 X109.366 Y84.567
G1 X110.790 Y86.026 F2400.000 E41.69895
G1 X112.189 Y88.048 E41.77104
G1 X113.192 Y90.209 E41.84091
G1 X113.801 Y92.511 E41.91072
G1 X114.024 Y94.878 E41.98041
G1 X113.810 Y97.491 E42.05729
G1 X113.185 Y99.806 E42.12761
G1 X112.044 Y102.160 E42.20431
G1 X110.826 Y103.921 E42.26708
G1 X108.976 Y105.771 E42.34379
G1 X106.942 Y107.187 E42.41647
G1 X104.885 Y108.138 E42.48290
G1 X102.755 Y108.744 E42.54784
G1 X100.732 Y108.995 E42.60761
G1 X97.748 Y108.823 E42.69524
G1 X95.264 Y108.179 E42.77051
G1 X92.842 Y107.033 E42.84905
G1 X90.891 Y105.631 E42.91952
G1 X89.194 Y103.920 E42.99016
G1 X87.785 Y101.860 E43.06335
G1 X86.481 Y98.646 E43.16504
G1 X86.033 Y96.068 E43.24175
G1 X86.215 Y92.481 E43.34706
G1 X86.840 Y90.188 E43.41675
G1 X87.916 Y87.897 E43.49097
G1 X89.802 Y85.397 E43.58279
G1 X91.722 Y83.703 E43.65786
G1 X93.030 Y82.841 E43.70380
G1 X94.922 Y81.953 E43.76507
G1 X97.499 Y81.221 E43.84361
G1 X100.053 Y80.977 E43.91885
G1 X102.525 Y81.207 E43.99164
G1 X104.830 Y81.836 E44.06169
G1 X106.983 Y82.846 E44.13144
G1 X109.366 Y84.567 E44.21763
G1 X111.547 Y87.631 F6000.000
G1 X108.899 Y89.509
G1 X94.847 Y85.863
G1 X93.816 Y87.740
G1 X93.812 Y87.745 F2400.000 E44.21780
G1 X93.747 Y88.745 F6000.000
G1 X96.183 Y86.309 F2400.000 E44.31994
G1 X97.622 Y85.806 E44.36511
